X: 206
T: WALTZ: Flatwater Fran (Amaj)
C: C: Phil Cunningham; S: Various
C: Set Leaders: Tania, Anton, Mars, Sophie
Z: Anton Zille ed., Oleg Naumov arr.; Sergei Ejov at The Session
N: https://thesession.org/members/26966/sets/92389
R: Waltz
M: 3/4
L: 1/8
Q: 1/4=144
K: Amaj
EF|:"A"A2 A2 EF|"A"A2 A2 ce|"D"f2 e2 A2|"A"c4 EF|
"A"A2 A2 EF|"Bm"B2 B2 AB|"F#m"c2 BA FE|"D"F4 EF|
"A"A2 A2 EF|"A"A2 A2 ce|"D"f2 e2 a2|"A"c4 ec|
"Bm"B2 BA Bc|"F#m"BA F2 AF|"D"EF A2 "E7"A2|1 "A"A4 EF:|2 "A"A4 ce||
|:"D"f2 e2 A2|"A"c4 ce|"D"f2 e2 A2|"A"c4 ce|
"D"f2 e2 a2|"F#m"c2 ec BA|"Bm"FB BA Bc|"E"B4 ce|
"D"f2 e2 a2|"A"c2 ec BA|"E7"B2 e3d|"F#m"c3 c BA|
"Bm"FB BA Bc|"F#m"BA F2 AF|"D"EF A2 "E7"A2|1 "A"A4 ce:|2 "A"A4||

